copytrade/img/icons/bonus.svg

<svg width="32" height="32" viewBox="0 0 32 32" fill="none" xmlns="http://www.w3.org/2000/svg">
<path fill-rule="evenodd" clip-rule="evenodd" d="M19.7789 8.04772C20.3553 8.18874 20.8082 8.62529 20.9619 9.18795L21.7382 12.0292C22.7453 12.1061 23.6395 12.7932 23.9159 13.8045C24.1922 14.8157 23.768 15.8493 22.9351 16.4096L23.7114 19.2506C23.8651 19.8133 23.6954 20.4134 23.2682 20.8182C22.841 21.2229 22.2235 21.3684 21.6555 21.1983L19.8434 20.6557C18.4282 20.2319 16.9554 20.0549 15.491 20.1257L16.1039 22.3688C16.2207 22.7963 15.962 23.2357 15.5261 23.3503L13.1581 23.9725C12.7222 24.087 12.2741 23.8333 12.1573 23.4058L11.4097 20.6698C9.88948 20.5302 8.54736 19.4837 8.12902 17.9526C7.59171 15.9861 8.78172 13.9648 10.787 13.4379L10.8727 13.4154C13.1796 12.8092 15.2665 11.58 16.8958 9.8677L18.1884 8.5093C18.5937 8.08342 19.2026 7.9067 19.7789 8.04772ZM13.0494 20.4782L13.5245 22.217L14.3138 22.0096L13.8494 20.3102C13.5815 20.3577 13.3147 20.4137 13.0494 20.4782ZM22.3447 14.2488L22.3287 14.19C22.3317 14.1997 22.3345 14.2094 22.3372 14.2193C22.3399 14.2291 22.3424 14.239 22.3447 14.2488ZM19.3833 9.60276L18.0907 10.9612L18.0688 10.9841C16.2338 12.9039 13.8878 14.2823 11.2957 14.9635L11.21 14.986C10.0766 15.2838 9.40395 16.4263 9.70764 17.5378C10.0113 18.6493 11.1763 19.3089 12.3097 19.0111L12.3955 18.9886C14.9876 18.3074 17.7221 18.3509 20.29 19.1137L20.3207 19.1229L22.1327 19.6655L21.6341 17.8404L19.882 11.4279L19.3833 9.60276Z" fill="#12CCC1"/>
</svg>

<svg width="32" height="32" fill="none" xmlns="http://www.w3.org/2000/svg"><path fill-rule="evenodd" clip-rule="evenodd" d="M19.779 8.048a1.62 1.62 0 011.183 1.14l.776 2.841c1.007.077 1.902.764 2.178 1.776a2.382 2.382 0 01-.98 2.605l.775 2.84a1.582 1.582 0 01-.443 1.568 1.657 1.657 0 01-1.613.38l-1.812-.542a12.989 12.989 0 00-4.352-.53l.613 2.243a.8.8 0 01-.578.981l-2.368.622a.819.819 0 01-1-.566l-.748-2.736c-1.52-.14-2.863-1.186-3.281-2.717-.537-1.967.653-3.988 2.658-4.515l.086-.023a12.802 12.802 0 006.023-3.547l1.292-1.359a1.655 1.655 0 011.59-.461zm-6.73 12.43l.476 1.739.789-.207-.465-1.7c-.268.048-.534.104-.8.168zm9.296-6.23l-.016-.058a.902.902 0 01.016.059zm-2.962-4.645l-1.292 1.358-.022.023a14.444 14.444 0 01-6.773 3.98l-.086.022c-1.133.298-1.806 1.44-1.502 2.552.303 1.111 1.468 1.77 2.602 1.473l.085-.022a14.66 14.66 0 017.895.125l.03.009 1.813.543-.499-1.826-1.752-6.412-.499-1.825z" fill="#12CCC1"/></svg>
